X:243
T: ICH BIN VERGNUEGT IM SIEGESTON VERKUEND ES MEIN GEDICHT
N: B0291
O: Europa, Mitteleuropa, Deutschland
R: Stimmungs - Lied, Freude
M: 6/8
L: 1/8
K: Eb
B, | E2EDED | CDEB,2
B, | B,A,G,F,E,F, | G,3z2
B, | G2GFED | C2DE2
F | DCB,F,DC | B,3z2
F | F2EEDC | CB,A,G,2
E | B,2G,E,2G, | F,2G,E,2

